X: 38846
T: Sun Splitting The Stones
R: reel
M: 4/4
K: Gmajor
d3 c|:BGAG EGDB,|G,B,DG Bdga|bggg aged|gedB Adcd|
BGAG EGDB,|G,B,DG Bdga|bggg aged|1 gedc BGGA:|2 gedc BG G2||
|:gfgd eBBB|dBGB AEEE|G,B,DG Bdge|dBGB AEEE|
gggd eBBB|dBGB AEEE|G,B,DG Bdge|1 dBAc BG G2:|2 dBAc BGGA||

